X:1
T:Ave Maris Stella
T:Ave Maris Stella
T:uit Orgelalbum 1
T:Jef Tinel (1885-1972)
T:Ad van de Wege
C:Jef Tinel (1885-1972)
Z:Ad van de Wege
%%score { ( 1 2 5 ) | ( 3 4 6 ) }
L:1/8
M:4/2
K:C
V:1 treble nm="Orgel" snm="Org."
V:2 treble 
V:5 treble 
V:3 bass 
V:4 bass 
V:6 bass 
V:1
"^A" D4 A4 B4 G4 | A4 B4 d4 c4 | B8 A4 G4 | [EA]16 | A8 D4 E4 | G8 F8 | [CE]16 | (([A,D]16 | %8
 (([A,D]8)) [A,D]2)) z2 z4 ||"^B" D4 [FA]4 [GB]4 [DG]4 | A4 B4 d4 c2 B2 | [EA]4 [DG]4 [EA]8 | %12
 [DA]8 [B,D]8 | E8 G8 | F8 E8 | D16 | [A,D]16 ||[M:4/4]"^C" d8 |[M:2/4] [db]4 | %19
[M:4/4] [Bdg]2 [cea][d^fb] [fad']2 [egc'][d=fb] | a2 g2 [Aa]4 | [da]4 [Bd]2 [^ce]2 | %22
 [eg]4 [df]2 [ce]2 |[M:2/4] c2 _B2 |[M:4/4] [Af]4 [Ge]2 [_Bg]2 | [ca]4 [Fd]2 [Ge]2 | %26
 [Af]4 [Ge]2 [Fd]2 | [Ec]4 [Ae]4 | g4 e2 f2 | e4 (d4 | d8) |] %31
V:2
 D16 | C4 D4 F4 (E4 | E4) D4 C4 E4 | x16 | D8 D4 C4 | C4 B,4 A,4 B,4 | x16 | x16 | x16 || x16 | %10
 F8 A4 G2 F2 | x16 | x16 | D4 C4 D4 E4 | C4 B,4 D4 (C4 | C4) B,8 A,4 | x16 ||[M:4/4] d4 a4 | %18
[M:2/4] G2 A2 |[M:4/4] x8 | [ce]2 [Bd]2 d2 e2 | F2 E2 F2 G2 | _B2 A2 B2 G2 |[M:2/4] [Fd]4 | %24
[M:4/4] x8 | x8 | x8 | x8 | _B4 A4 | G6 FE | D8 |] %31
V:3
!ped! F,8 G,4 D,4!ped-up! | E,4 G,4 A,8 | G,8 A,4 B,4 | C4 B,4 A,4 G,4 | F,4 G,4 A,4 G,4 | %5
 E,8 F,4 G,4 | A,,16 | D,,16 | (F,8 F,2) z2 z4 || D4 C4 D4 B,4 | C4 D4 F4 E2 D2 | C4 B,4 C8 | %12
 F,12 E,2 D,2 | C,4 A,,4 E,,4 C,,4 | D,,4 G,,4 A,,8 | F,8 G,8 | G,8 F,8 || %17
[M:4/4]"_zonder pedaal" x8 |[M:2/4] x4 |[M:4/4] x8 | z4!ped! D,2 A,2!ped-up! | B,4 A,4 | %22
 D,4 G,2 A,2 |[M:2/4] _B,2 G,2 |[M:4/4] C2 =B,4 D2 | F2 ED C4 | B,2 G,2 A,2 B,2 | G,4 C2 ^C2 | %28
 D2 =C4 =B,2 | C2 B,2 (A,4 | A,2) [G,_B,]2"_tijdsduur 1'35''" [^F,A,]4 |] %31
V:4
 D,8 G,,4 B,,4 | A,,4 G,,4 D,4 A,,2 C,2 | E,8 F,4 E,4 | A,,4 B,,4 C,8 | D,4 E,4 F,4 E,4 | C,8 D,8 | %6
 A,4 B,4 A,4 G,4 | G,8 F,4 E,4 | (D,,8 D,,2) z2 z4 || D,8 E,8 | D,8 (G,8 | G,4) E,4 A,,4 A,2 G,2 | %12
 C4 B,4 (G,8 | G,8) B,4 (A,4 | A,8) G,8 | D,16 | D,,16 ||[M:4/4] x8 |[M:2/4] x4 |[M:4/4] x8 | x8 | %21
 x8 | x8 |[M:2/4] x4 |[M:4/4] D,4 E,4 | D,4 A,4 | G,4 G,,4 | A,,4 G,4 | E,4 F,2 D,2 | A,,4 (D,4 | %30
 D,8) |] %31
V:5
 x16 | x16 | x16 | x16 | x16 | x16 | x16 | x16 | x16 || x16 | x16 | x16 | x16 | x16 | x16 | x16 | %16
 x16 ||[M:4/4] z2 c2 cB A2 |[M:2/4] x4 |[M:4/4] x8 | x8 | x8 | x8 |[M:2/4] x4 |[M:4/4] x8 | x8 | %26
 x8 | x8 | x8 | x8 | x8 |] %31
V:6
 x16 | x16 | x16 | x16 | x16 | x16 | x16 | x16 | x16 || x16 | x16 | x16 | x16 | x16 | x16 | x16 | %16
 x16 ||[M:4/4] x8 |[M:2/4] x4 |[M:4/4] x8 | x8 | x8 | x8 |[M:2/4] x4 |[M:4/4] x8 | x8 | x8 | x8 | %28
 x8 | x8 | D,,8 |] %31

